src/next/cmd/sc_notesmode.svg

<svg height="16" viewBox="0 0 4.2333333 4.2333335" width="16" xmlns="http://www.w3.org/2000/svg" xmlns:xlink="http://www.w3.org/1999/xlink"><filter id="a" color-interpolation-filters="sRGB" height="1.0264" width="1.022" x="-.011" y="-.0132"><feGaussianBlur stdDeviation=".1200918"/></filter><filter id="b" color-interpolation-filters="sRGB" height="1.132" width="1.11" x="-.055" y="-.066"><feGaussianBlur stdDeviation=".600459"/></filter><filter id="c" color-interpolation-filters="sRGB" height="1.0528" width="1.044" x="-.022" y="-.0264"><feGaussianBlur stdDeviation=".2401836"/></filter><radialGradient id="d" cx="138.80815" cy="139.86963" gradientTransform="matrix(-.25629663 0 0 -.26018501 31.73004 296.96481)" gradientUnits="userSpaceOnUse" r="139.5585"><stop offset="0" stop-color="#3e3e3e"/><stop offset=".0151" stop-color="#505050"/><stop offset=".0558" stop-color="#7e7e7e"/><stop offset=".1357" stop-color="#c6c6c6"/><stop offset=".20990001" stop-color="#f1f1f1"/><stop offset=".24349999" stop-color="#fcfcfc"/><stop offset=".2722" stop-color="#fff"/></radialGradient><radialGradient id="e" cx="106.64235" cy="109.87873" gradientTransform="matrix(0 .17925563 -.19143067 0 30.627206 276.05374)" gradientUnits="userSpaceOnUse" r="139.55859"><stop offset="0" stop-color="#c3c5c6"/><stop offset=".11366145" stop-color="#e5e5e5"/><stop offset=".20296688" stop-color="#ececec"/><stop offset=".42236325" stop-color="#fafafa"/><stop offset=".69470489" stop-color="#fff"/><stop offset=".89319199" stop-color="#fafafa"/><stop offset=".99243551" stop-color="#ebecec"/><stop offset="1" stop-color="#e1e2e3"/></radialGradient><linearGradient id="f" gradientTransform="matrix(-.26458333 0 0 .26458333 31.75 265.24999)" gradientUnits="userSpaceOnUse" x1="69.715248" x2="69.715248" y1="88.024902" y2="-32.021744"><stop offset="0" stop-color="#9c9c9c"/><stop offset="1" stop-color="#9c9c9c" stop-opacity="0"/></linearGradient><g transform="matrix(.125 0 0 .125 0 -32.891665)"><path d="m2.4287318 271.26587h29.0092052v21.83486h-29.0092052z" fill="#a4a4a4" filter="url(#b)" transform="matrix(0 1.09448 -1.09448 0 325.77732 261.53346)"/><path d="m1.8599554 271.26588h30.1467556v21.83486h-30.1467556z" fill="#949494" filter="url(#a)" transform="matrix(0 1.0531812 -1.0531812 0 314.12348 262.23278)"/><path d="m1.7325692 271.26588h30.4015288v21.83486h-30.4015288z" fill="#313131" filter="url(#c)" transform="matrix(0 1.0080161 -1.0080161 0 301.37865 262.99758)"/><path d="m27.516666 294.88332v-29.63333l-21.1666662.00014v29.63319z" fill="url(#d)" stroke-width=".266583"/><path d="m25.399999 267.69576c0-.0989-.07316-.17926-.162941-.17926l-16.5732423.0609c-.089944 0-.1629414.0805-.1629414.17926l-.034207 25.00996c.03047.0335.072344.0525.115197.0525h16.7713657c.08978 0 .162939-.0803.162939-.17926z" fill="url(#e)" stroke-width=".185625"/><g fill="#b6b6b6"><path d="m25.399996 267.36665v1.05833h-16.9333296v-1.05833z"/><path d="m24.341673 268.42499h1.05833v7.40833h-1.05833z"/><path d="m8.4666434 268.42499h1.05833v7.40833h-1.05833z"/><path d="m25.400006 274.77499v1.05833h-16.9333296v-1.05833z"/></g><path d="m25.399999 277.94998v2.11667h-12.699999v-2.11667zm-12.699999 0v2.11667h-4.2333334v-2.11667zm12.699999 4.23333v2.11667h-12.699999v-2.11667zm-12.699999 0v2.11667h-4.2333334v-2.11667zm12.699999 4.23334v2.11666h-12.699999v-2.11666zm-12.699999 0v2.11666h-4.2333334v-2.11666zm12.699999 4.23333v2.11667h-12.699999v-2.11667zm-12.699999 0v2.11667h-4.2333334v-2.11667z" fill="url(#f)" fill-rule="evenodd"/></g></svg>

<?xml version="1.0" encoding="UTF-8" standalone="no"?>
<svg
   xmlns:dc="http://purl.org/dc/elements/1.1/"
   xmlns:cc="http://creativecommons.org/ns#"
   xmlns:rdf="http://www.w3.org/1999/02/22-rdf-syntax-ns#"
   xmlns:svg="http://www.w3.org/2000/svg"
   xmlns="http://www.w3.org/2000/svg"
   xmlns:sodipodi="http://sodipodi.sourceforge.net/DTD/sodipodi-0.dtd"
   xmlns:inkscape="http://www.inkscape.org/namespaces/inkscape"
   height="16"
   viewBox="0 0 4.2333333 4.2333335"
   width="16"
   version="1.1"
   id="svg72"
   sodipodi:docname="sc_notesmode.svg"
   inkscape:version="0.92.3 (2405546, 2018-03-11)"
   inkscape:export-filename="/home/rizmut/Dokumen/Rizmut/Github/libreoffice-style-karasa-jaga/build/next/cmd/sc_notesmode.png"
   inkscape:export-xdpi="96"
   inkscape:export-ydpi="96">
  <metadata
     id="metadata78">
    <rdf:RDF>
      <cc:Work
         rdf:about="">
        <dc:format>image/svg+xml</dc:format>
        <dc:type
           rdf:resource="http://purl.org/dc/dcmitype/StillImage" />
        <dc:title></dc:title>
      </cc:Work>
    </rdf:RDF>
  </metadata>
  <defs
     id="defs76" />
  <sodipodi:namedview
     pagecolor="#ffffff"
     bordercolor="#666666"
     borderopacity="1"
     objecttolerance="10"
     gridtolerance="10"
     guidetolerance="10"
     inkscape:pageopacity="0"
     inkscape:pageshadow="2"
     inkscape:window-width="1366"
     inkscape:window-height="714"
     id="namedview74"
     showgrid="true"
     inkscape:zoom="30.25"
     inkscape:cx="8"
     inkscape:cy="8"
     inkscape:window-x="0"
     inkscape:window-y="28"
     inkscape:window-maximized="1"
     inkscape:current-layer="svg72">
    <inkscape:grid
       type="xygrid"
       id="grid885" />
  </sodipodi:namedview>
  <filter
     id="a"
     height="1.0264"
     width="1.022"
     x="-0.011"
     y="-0.0132"
     style="color-interpolation-filters:sRGB">
    <feGaussianBlur
       stdDeviation=".1200918"
       id="feGaussianBlur2" />
  </filter>
  <filter
     id="b"
     height="1.132"
     width="1.11"
     x="-0.055"
     y="-0.066"
     style="color-interpolation-filters:sRGB">
    <feGaussianBlur
       stdDeviation=".600459"
       id="feGaussianBlur5" />
  </filter>
  <filter
     id="c"
     height="1.0528001"
     width="1.044"
     x="-0.022"
     y="-0.0264"
     style="color-interpolation-filters:sRGB">
    <feGaussianBlur
       stdDeviation=".2401836"
       id="feGaussianBlur8" />
  </filter>
  <radialGradient
     id="d"
     cx="138.80815"
     cy="139.86963"
     gradientTransform="matrix(-0.25629663,0,0,-0.26018501,31.73004,296.96481)"
     gradientUnits="userSpaceOnUse"
     r="139.5585">
    <stop
       offset="0"
       stop-color="#3e3e3e"
       id="stop11" />
    <stop
       offset=".0151"
       stop-color="#505050"
       id="stop13" />
    <stop
       offset=".0558"
       stop-color="#7e7e7e"
       id="stop15" />
    <stop
       offset=".1357"
       stop-color="#c6c6c6"
       id="stop17" />
    <stop
       offset=".20990001"
       stop-color="#f1f1f1"
       id="stop19" />
    <stop
       offset=".24349999"
       stop-color="#fcfcfc"
       id="stop21" />
    <stop
       offset=".2722"
       stop-color="#fff"
       id="stop23" />
  </radialGradient>
  <radialGradient
     id="e"
     cx="106.64235"
     cy="109.87873"
     gradientTransform="matrix(0,0.17925563,-0.19143067,0,30.627206,276.05374)"
     gradientUnits="userSpaceOnUse"
     r="139.55859">
    <stop
       offset="0"
       stop-color="#c3c5c6"
       id="stop26" />
    <stop
       offset=".11366145"
       stop-color="#e5e5e5"
       id="stop28" />
    <stop
       offset=".20296688"
       stop-color="#ececec"
       id="stop30" />
    <stop
       offset=".42236325"
       stop-color="#fafafa"
       id="stop32" />
    <stop
       offset=".69470489"
       stop-color="#fff"
       id="stop34" />
    <stop
       offset=".89319199"
       stop-color="#fafafa"
       id="stop36" />
    <stop
       offset=".99243551"
       stop-color="#ebecec"
       id="stop38" />
    <stop
       offset="1"
       stop-color="#e1e2e3"
       id="stop40" />
  </radialGradient>
  <linearGradient
     id="f"
     gradientTransform="matrix(-0.26458333,0,0,0.26458333,31.75,265.24999)"
     gradientUnits="userSpaceOnUse"
     x1="69.715248"
     x2="69.715248"
     y1="88.024902"
     y2="-32.021744">
    <stop
       offset="0"
       stop-color="#9c9c9c"
       id="stop43" />
    <stop
       offset="1"
       stop-color="#9c9c9c"
       stop-opacity="0"
       id="stop45" />
  </linearGradient>
  <g
     transform="matrix(0.125,0,0,0.125,0,-32.891665)"
     id="g70">
    <path
       style="fill:#a4a4a4;filter:url(#b)"
       inkscape:connector-curvature="0"
       d="M 2.4287318,271.26587 H 31.437937 v 21.83486 H 2.4287318 Z"
       transform="matrix(0,1.09448,-1.09448,0,325.77732,261.53346)"
       id="path48" />
    <path
       style="fill:#949494;filter:url(#a)"
       inkscape:connector-curvature="0"
       d="M 1.8599554,271.26588 H 32.006711 v 21.83486 H 1.8599554 Z"
       transform="matrix(0,1.0531812,-1.0531812,0,314.12348,262.23278)"
       id="path50" />
    <path
       style="fill:#313131;filter:url(#c)"
       inkscape:connector-curvature="0"
       d="M 1.7325692,271.26588 H 32.134098 v 21.83486 H 1.7325692 Z"
       transform="matrix(0,1.0080161,-1.0080161,0,301.37865,262.99758)"
       id="path52" />
    <path
       inkscape:connector-curvature="0"
       style="fill:url(#d);stroke-width:0.266583"
       d="m 27.516666,294.88332 v -29.63333 l -21.1666662,1.4e-4 v 29.63319 z"
       id="path54" />
    <path
       inkscape:connector-curvature="0"
       style="fill:url(#e);stroke-width:0.185625"
       d="m 25.399999,267.69576 c 0,-0.0989 -0.07316,-0.17926 -0.162941,-0.17926 l -16.5732423,0.0609 c -0.089944,0 -0.1629414,0.0805 -0.1629414,0.17926 l -0.034207,25.00996 c 0.03047,0.0335 0.072344,0.0525 0.115197,0.0525 H 25.35323 c 0.08978,0 0.162939,-0.0803 0.162939,-0.17926 z"
       id="path56" />
    <g
       style="fill:#b6b6b6"
       id="g66">
      <path
         inkscape:connector-curvature="0"
         d="m 25.399996,267.36665 v 1.05833 H 8.4666664 v -1.05833 z"
         id="path58" />
      <path
         inkscape:connector-curvature="0"
         d="m 24.341673,268.42499 h 1.05833 v 7.40833 h -1.05833 z"
         id="path60" />
      <path
         inkscape:connector-curvature="0"
         d="m 8.4666434,268.42499 h 1.05833 v 7.40833 h -1.05833 z"
         id="path62" />
      <path
         inkscape:connector-curvature="0"
         d="m 25.400006,274.77499 v 1.05833 H 8.4666764 v -1.05833 z"
         id="path64" />
    </g>
    <path
       inkscape:connector-curvature="0"
       style="fill:url(#f);fill-rule:evenodd"
       d="m 25.399999,277.94998 v 2.11667 H 12.7 v -2.11667 z m -12.699999,0 v 2.11667 H 8.4666666 v -2.11667 z m 12.699999,4.23333 v 2.11667 H 12.7 v -2.11667 z m -12.699999,0 v 2.11667 H 8.4666666 v -2.11667 z m 12.699999,4.23334 v 2.11666 H 12.7 v -2.11666 z m -12.699999,0 v 2.11666 H 8.4666666 v -2.11666 z m 12.699999,4.23333 v 2.11667 H 12.7 v -2.11667 z m -12.699999,0 v 2.11667 H 8.4666666 v -2.11667 z"
       id="path68" />
  </g>
</svg>
